!!!COM: Macigni, Giovanni
!!!CDT:
!!!PTL: Madrigali a cinque voci con il basso continuo. Libro primo  
!!!PPP: Venice
!!!PPR: Gardano-B.Magni
!!!PDT: 1617
!!!PUB-format:
!!!RISM: M 54
!!!OTL: Ho visto al pianto mio
!!!AGN: Madrigal
!!!SCT: Tam1020338f
!!!SCA: Tam1020338f
!!!original-voices: 5+bc
!!!extant-voices: 4
!!!complete: N
!!!final: E
**kern	**text	**kern	**text	**kern	**text	**kern	**text
*part4	*part4	*part3	*part3	*part2	*part2	*part1	*part1
*staff4	*staff4	*staff3	*staff3	*staff2	*staff2	*staff1	*staff1
*I"Quinto	*	*I"Tenore	*	*I"Alto	*	*I"Canto	*
*I'V	*	*I'T	*	*I'A	*	*I'C	*
*oclefC4	*	*oclefC4	*	*oclefC3	*	*oclefC1	*
*clefGv2	*	*clefGv2	*	*clefG2	*	*clefG2	*
*k[]	*	*k[]	*	*k[]	*	*k[]	*
*omet(C)	*	*omet(C)	*	*omet(C)	*	*omet(C)	*
*M4/2	*	*M4/2	*	*M4/2	*	*M4/2	*
=1	=1	=1	=1	=1	=1	=1	=1
2e	Ho	2B	Ho	2g#X	Ho	2b	Ho
2e	vi-	2B	vi-	2g#X	vi-	2b	vi-
4e	-sto al	4A	-sto al	4a	-sto al	4cc#X	-sto al
2d	pian-	2A	pian-	2f	pian-	2dd	pian-
4e	-to	4A	-to	4e	-to	4ccnXi	-to
=2	=2	=2	=2	=2	=2	=2	=2
1B	mi-	1G#X	mi-	1e	mi-	1b	mi-
2B	-o	2G#X	-o	2e	-o	2b	-o
2B	Ri-	2G#X	Ri-	2e	Ri-	[2ee	Ri-
=3	=3	=3	=3	=3	=3	=3	=3
2e	-spon-	2.A	-spon-	2e	-spon-	2ee]	.
2d	-der	.	.	2f	-der	4a	-spon-
.	.	4A	-der	.	.	4b	-der
4c	per	2A	per	2.e	per	2cc	per
4A	pie-	.	.	.	.	.	.
2B	-ta-	2G#X	pie-	.	.	2b	pie-
.	.	.	.	4e	pie-	.	.
=4	=4	=4	=4	=4	=4	=4	=4
2c	-de,	4A	-ta-	2.e	-ta-	4a	-ta-
.	.	4A	-d'i	.	.	4cc	-d'i
2r	.	4A	sas-	.	.	4cc	sas-
.	.	4B	-si E	4g	-d'i	4dd	-si e
1r	.	4c	l'on-	4e	sas-	4ee	l'on-
.	.	8BL	.	4f	-si e	8ddL	.
.	.	8AJ	.	.	.	8ccJ	.
.	.	4G	.	4g	l'on-	4b	.
.	.	4A	.	8fL	.	4cc	.
.	.	.	.	8eJ	.	.	.
=5	=5	=5	=5	=5	=5	=5	=5
1r	.	4B	.	4d	.	4dd	.
.	.	8AL	.	4e	.	8ccL	.
.	.	8GJ	.	.	.	8bJ	.
.	.	2d	.	2f#X	.	2a	.
2r	.	2d	-de,	2g	-de,	2b	-de,
4r	.	4r	.	4r	.	4r	.
4d	E	4B	E	4g	E	4dd	E
=6	=6	=6	=6	=6	=6	=6	=6
4d	so-	4B	so-	4g	so-	4dd	so-
8r	.	8r	.	8r	.	8r	.
8d	-spi-	8A	-spi-	8a	-spi-	8dd	-spi-
4d	-rar	4B	-rar	4g	-rar	4dd	-rar
8r	.	4A	le	4e	le	4cc	le
8A	le	.	.	.	.	.	.
1B	fron-	1G#X	fron-	1e	fron-	1b	fron-
=7	=7	=7	=7	=7	=7	=7	=7
2B	-de,	2G#X	-de,	1e	-de,	2b	-de,
2c	Ho	2r	.	.	.	2ee	Ho
4G	vi-	2r	.	2g	Ho	4b	vi-
4A	-sto al	.	.	.	.	4cc	-sto al
2B	pian-	2B	Ho	4d	vi-	[2dd	pian-
.	.	.	.	4e	-sto al	.	.
=8	=8	=8	=8	=8	=8	=8	=8
2A	-to	8F#X	vi-	4f#X	pian-	4dd]	.
.	.	8G	-sto al	.	.	.	.
.	.	4.A	pian-	4e	-to	4cc	-to
2B	mi-	.	.	2e	mi-	2b	mi-
.	.	8G#X	-to	.	.	.	.
.	.	4G#X	mi-	.	.	.	.
2c#X	-o,	2A	-o,	1e	-o,	2a	-o,
2r	.	2r	.	.	.	4r	.
.	.	.	.	.	.	[4cc	Ma
=9	=9	=9	=9	=9	=9	=9	=9
2.e	Ma	0r	.	4r	.	4cc]	.
.	.	.	.	2g	Ma	8b	non
.	.	.	.	.	.	8a	ho
.	.	.	.	.	.	4g	vi-
8d	non	.	.	8f	non	4a	-sto
8c	ho	.	.	8e	ho	.	.
4B	vi-	.	.	4d	vi-	1g	ma-
4e	-sto	.	.	4c	-sto	.	.
2d	ma-	.	.	2B	ma-	.	.
=10	=10	=10	=10	=10	=10	=10	=10
2e	-i,	2r	.	2c	-i,	1g	-i,
2e	Ne	2c	Ne	2g	Ne	.	.
4.d	spe-	4.B	spe-	4.g	spe-	1r	.
8e	-ro	8c	-ro	8g	-ro	.	.
4c	di	4A	di	4f	di	.	.
4d	ve-	4B	ve-	4f	ve-	.	.
=11	=11	=11	=11	=11	=11	=11	=11
2e	-de-	2c	-de-	2e	-de-	2r	.
4c	-re,	2c	-re,	2e	-re,	4r	.
4e	<Ne	.	.	.	.	4cc	Ne
4.e	spe-	1r	.	1r	.	4.b	spe-
8e	-ro	.	.	.	.	8cc	-ro
4d	di	.	.	.	.	4a	di
4d	ve-	.	.	.	.	4b	ve-
=12	=12	=12	=12	=12	=12	=12	=12
2.c	-de-	2r	.	1.e	Com-	1cc	-de-
.	.	1A	Com-	.	.	.	.
4d	.	.	.	.	.	.	.
1e	.	.	.	.	.	2b	-re,
.	.	4G#X	-pas-	4B	-pas-	[2ee	Com-
.	.	4G#X	-si-	4B	-si-	.	.
=13	=13	=13	=13	=13	=13	=13	=13
1e	-re,>	2G#X	-on,	2B	-on,	2ee]	.
.	.	1e	<Com-	1g	<Com-	4b	-pas-
.	.	.	.	.	.	4b	-si-
[1B	Com-	.	.	.	.	[1b	-on
.	.	4d#X	-pas-	4f#X	-pas-	.	.
.	.	4d#X	-si-	4f#X	-si-	.	.
=14	=14	=14	=14	=14	=14	=14	=14
2B]	.	2.d#X	-on>	2.f#X	-on>	2b]	.
4F#X	-pas-	.	.	.	.	4r	.
4F#X	-si-	4d#i	nel-	4f#X	nel-	4b	nel-
4F#X	-on	4d#i	-la	4f#X	-la	4b	-la
4G#X	nel-	4e	cru-	2e	cru-	4b	cru-
4.A	-la	4c	-de-	.	.	[2cc	-de-
.	.	4c	-le e	[4a	-de-	.	.
8Gni	cru-	.	.	.	.	.	.
=15	=15	=15	=15	=15	=15	=15	=15
4F#X	-de-	1d	bel-	4a]	.	4cc]	.
4G	-le e	.	.	4g	-le e	4b	-le e
2A	bel-	.	.	2f#X	bel-	2a	bel-
1G	-la,	2d	-la,	1g	-la,	1b	-la,
.	.	[2G	Che	.	.	.	.
=16	=16	=16	=16	=16	=16	=16	=16
2.d	Che	4G]	.	1r	.	1r	.
.	.	4F	non	.	.	.	.
.	.	4E	so	.	.	.	.
4c	non	8E	s'io	.	.	.	.
.	.	8F	la	.	.	.	.
4B	so	2G	chia-	2.g	Che	2r	.
8B	s'io	.	.	.	.	.	.
8c	la	.	.	.	.	.	.
2d	chia-	2D	-mi,	.	.	[2dd	Che
.	.	.	.	4f	non	.	.
=17	=17	=17	=17	=17	=17	=17	=17
2A	-mi	1r	.	4e	so	4dd]	.
.	.	.	.	8e	s'io	4cc	non
.	.	.	.	8f	la	.	.
2r	.	.	.	2g	chia-	4b	so
.	.	.	.	.	.	8b	s'io
.	.	.	.	.	.	8cc	la
1r	.	4r	.	2d	-mi	2dd	chia-
.	.	2d	<Che	.	.	.	.
.	.	.	.	2r	.	2g	-mi
.	.	4c	non	.	.	.	.
=18	=18	=18	=18	=18	=18	=18	=18
2d	o	4B	so	2r	.	0r	.
.	.	8B	s'io	.	.	.	.
.	.	8c	la	.	.	.	.
4B	don-	4d	chia-	2g	o	.	.
4c	-na o	4e	-mi> o	.	.	.	.
2.A	fe-	4c	don-	4a	don-	.	.
.	.	4d	-na, o	4f	-na, o	.	.
.	.	2B	fe-	2e	fe-	.	.
4G#X	.	.	.	.	.	.	.
=19	=19	=19	=19	=19	=19	=19	=19
2A	-ra.	2c#X	-ra.	1e	-ra.	4r	.
.	.	.	.	.	.	4a	Ma
4r	.	4r	.	.	.	4.cc	ne-
4c	Ma	4A	Ma	.	.	.	.
.	.	.	.	.	.	8b	-ga
4.e	ne-	4.cni	ne-	4r	.	4a	d'es-
.	.	.	.	4e	Ma	4g	-ser
8d	-ga	8B	-ga	.	.	.	.
4c	d'es-	4A	d'es-	4.f	ne-	2a	don-
4A	-ser	4F	-ser	.	.	.	.
.	.	.	.	8e	-ga	.	.
=20	=20	=20	=20	=20	=20	=20	=20
4B	don-	1G	don-	4d	d'es-	1g	-na,
2c	.	.	.	4c	-ser	.	.
.	.	.	.	2d	don-	.	.
4B	.	.	.	.	.	.	.
4c	-na,	4C	-na,	2e	-na,	1r	.
4e	Poi-	4c	Poi-	.	.	.	.
4e	-ché	4c	-ché	4r	.	.	.
[4e	ne-	[4c	ne-	4g	Poi-	.	.
=21	=21	=21	=21	=21	=21	=21	=21
8e]	.	8c]	.	4g	-ché	0r	.
8d	-ga	8B	-ga	.	.	.	.
4B	pie-	4G	pie-	4.g	ne-	.	.
4c#X	-ta-	2A	-ta-	.	.	.	.
.	.	.	.	8f	-ga	.	.
2d	.	.	.	4d	pie-	.	.
.	.	2A	-te,	2e	-ta-	.	.
4c#X	.	.	.	.	.	.	.
4d	-te,	2r	.	2d	-te	.	.
4B	<Poi-	.	.	.	.	.	.
=22	=22	=22	=22	=22	=22	=22	=22
4B	-ché	4d	<Poi-	1r	.	4r	.
4.B	ne-	4d	-ché	.	.	4dd	Poi-
.	.	4.d	ne-	.	.	4dd	-ché
8A	-ga	.	.	.	.	.	.
4F#X	pie-	.	.	.	.	4.dd	ne-
.	.	8A	-ga	.	.	.	.
4G#X	-ta-	2e	pie-	2r	.	.	.
.	.	.	.	.	.	8cc	-ga
2A	.	.	.	.	.	4a	pie-
.	.	2e	-ta-	4r	.	2b	-ta-
4G#X	.	.	.	4e	A	.	.
=23	=23	=23	=23	=23	=23	=23	=23
2A	-te>	2e	-te>	2c#X	cui,	4a	-te
.	.	.	.	.	.	4a	A
4r	.	4r	.	4r	.	2f#X	cui,
4F#X	A	4A	A	4d	A	.	.
2F#i	cui,	2B	cui,	2d	cui,	4r	.
.	.	.	.	.	.	4dd	A
4r	.	4r	.	4r	.	[2b	cui
4B	A	4d	A	4g	A	.	.
=24	=24	=24	=24	=24	=24	=24	=24
2.B	cui	2.e	cui	2.g	cui	4b]	.
.	.	.	.	.	.	4ee	non
.	.	.	.	.	.	4b	la
4A	non	4c	non	2e	non	4cc	ne-
4B	la	4e	la	.	.	1g	-ga-
2c	ne-	4e	ne-	4.g	la	.	.
.	.	2d	-ga-	.	.	.	.
.	.	.	.	8d	ne-	.	.
4B	-ga-	.	.	4d	-ga-	.	.
=25	=25	=25	=25	=25	=25	=25	=25
4c	-ro	4c	-ro	2e	-ro	2g	-ro
4e	Le	4c	Le	.	.	.	.
4e	co-	4c	co-	2r	.	2r	.
4d	-se i-	4B	-se i-	.	.	.	.
4c	-na-	4A	-na-	1r	.	4r	.
4c	-ni-	4A	-ni-	.	.	4ee	Le
2B	-ma-	2G#X	-ma-	.	.	4ee	co-
.	.	.	.	.	.	4dd	-se i-
=26	=26	=26	=26	=26	=26	=26	=26
2A	-te,	2A	-te,	4r	.	4.cc	-na-
.	.	.	.	4a	Le	.	.
.	.	.	.	.	.	8b	-ni-
2r	.	2r	.	4a	co-	2a	-ma-
.	.	.	.	4g	-se i-	.	.
2r	.	4r	.	4f	-na-	2a	-te,
.	.	4A	Le	4f	-ni-	.	.
4r	.	4A	co-	2e	-ma-	2r	.
4e	<Le	4G	-se i-	.	.	.	.
=27	=27	=27	=27	=27	=27	=27	=27
4e	co-	2F	-na-	2A	-te,	2r	.
4d	-se i-	.	.	.	.	.	.
2c	-na-	2E	-ni-	2A	<Le	4r	.
.	.	.	.	.	.	4ee	<Le
2B	-ni-	[1E	-ma-	4B	co-	4ee	co-
.	.	.	.	4B	-se i-	4dd	-se i-
4.A	-ma-	.	.	4.c	-na-	4.cc	-na-
8B	.	.	.	8d	-ni-	8b	-ni-
=28	=28	=28	=28	=28	=28	=28	=28
1c	.	1E]	.	1e	-ma-	1a	-ma-
1Bl	-te.	1El	-te.	1el	-te.>	1g#Xl	-te.>
==	==	==	==	==	==	==	==
*-	*-	*-	*-	*-	*-	*-	*-
!!!system-decoration: [*]
!!!RDF**kern: i = editorial accidental
!!!RDF**kern: l = terminal long
!!!ENC: Emiliano Ricciardi
!!!END: 2018
!!!EED: Coluzzi, Seth
!!!EEV: 2018/09/25
!!!YEC: Copyright 2018 Emiliano Ricciardi, All Rights Reserved
!!!ONB: Translated from MusicXML on 2018/09/25
!!@@BEGIN:	VERSEDATA
!!@CATALOGNUM:	Tam1020338
!!@LAST_MODIFIED: 2020/07/12
!!@ACT:      1
!!@SCENE:    2
!!@VERSE:    338
!!@TITLE:    Ho visto al pianto mio
!!@MANUSRC:	A-Am, A-Au, A-Br, A-CM, A-F, A-Ub
!!@PRINTSRC:	A-1580D, A-1580M, A-1581B, A-1581B<sub>bis</sub>, A-1581M, A-1581M<sub>bis</sub>, A-1581O, A-1581V, A-1582B, A-1583M, A-1583V, A-1584A, A-1585C, A-1585V, A-1585V<sub>bis</sub>, A-1588B, A-1589M, A-1589V, A-1590Mb, A-1590Mv, A-1591M, A-1591W, A-1592B, A-1596B, A-1596M, A-1599Bf, A-1599Bp, A-1600R, A-1601Bf, A-1601Bp, A-1602B, A-1603Bf, A-1603Bv, A-1603Z, A-1605R, A-1606Z, A-1608D, A-1608DP, A-1609Bf, A-1609Bv, A-1609Z, A-1611D, A-1614GT, A-1617D, A-1618B, A-1619D, A-1619I, A-1620V, A-1622D, A-1623A, A-1624M, A-1624S, A-1624T, A-1625U, A-1628U, A-1632D, A-1634R
!!@@BEGIN:	VERSES
!!@ABOUTIT:	
!!@ABOUTEN:	
!!@EDITOR:	Solerti, Angelo
!!@EDITION_TITLE: Opere minori in versi di Torquato Tasso. Edizione critica sugli autografi e sulle antiche stampe.
!!@EDITION_LOC:	Bologna
!!@EDITION_PUB:	Zanichelli
!!@EDITION_DATE:  1895
!!@EDITION_VOL:	3
!!@EDITION_PAGE:
!!@TRANSLATOR:	Emiliano Ricciardi and Amyrose McCue Gill
!!@VERSE:	
!!	Ho visto al pianto mio
!!	Risponder per pietate i sassi e l'onde,
!!	E sospirar le fronde
!!	Ho visto al pianto mio;
!!	Ma non ho visto mai,
!!	Né spero di vedere,
!!	Compassion ne la crudele e bella
!!	Che non so s'io mi chiami o donna o fera:
!!	Ma niega d'esser donna,
!!	Poiché niega pietate
!!	A chi non la negaro
!!	Le cose inanimate.
!!@TVERSE:
!!	I have seen to my lament
!!	Respond, out of compassion, the stones and the waves,
!!	And the leafy branches sigh,
!!	I have seen to my lament;
!!	But I have never seen
!!	Nor hope to see
!!	Compassion in the cruel and beautiful [one]
!!	Whom I know not if I should call woman or wound:
!!	But she denies being a woman,
!!	Just as she denies compassion
!!	To he who is not denied it [by]
!!	Inanimate objects.
!!@@END:		VERSES
!!@NEW_CRIT_ED:   Torquato Tasso, <i>Aminta. "Princeps."</i>, ed. Matteo Navone, vol. 9 of Commissione Nazionale per l'Edizione delle opere del Tasso. Studi e Testi (Alessandria: Edizioni dell'Orso, 2014).
!!@ATTRIBUTION_ABOUT:	
!!@DATING:	1573
!!@DEDICATEE:	
!!@COMMENTARY:
!!@@END:		VERSEDATA
!!@@BEGIN: SETTING
!!@CATALOGNUM:	Tam1020338f
!!@ACT:		I
!!@SCENE:		2
!!@VERSE:		338
!!@TITLE:		Ho visto al pianto mio
!!@COMPOSER:	Macigni, Giovanni
!!@COMPOSER2:	Magni, Benedetto
!!@PRINCEPSTITLE:	Madrigali a cinque voci con il basso continuo. Libro primo  
!!@PRINCEPSLOC:	Venice
!!@NORMLOC:	Venice
!!@NORMPUB:	Gardano-B.Magni
!!@NORMPUBSHORT:	Gardano-Magni
!!@PRINCEPSPUB:	Stampa del Gardano appresso Bartholomeo Magni,
!!@PRINCEPSYEAR:	1617
!!@PRINCEPSRISM:	M 54
!!@OVOICES:	5 + bc
!!@EXTANTVOICES:	4
!!@OMENSURATION:	C
!!@OCLEFS:	C1,C3,C4,C4
!!@OTIME:		
!!@OKEYSIG:	-
!!@FINAL:		E
!!@TIMPEDITOR:	Coluzzi, Seth
!!@PARTS:		1 of 1
!!@REPRINTS:	
!!@@END: SETTING
